X:1
T:The Dowie Dens O Yarrow
M:4/4
L:1/4
K:F
 z2 z B,| B, D3/4- F/4 FG/2-B/2| D C B, D/2F/2| B3/2 B/2 c3/2 c/2|\
 d3/2- c/2 B B/2c/2| d d c3/2 A/2| B3/2 G/2 F G/2A/2| B3/2 G/2 F D|\
 C2 B,B,/2-C/2| D F F B| D C B,D/2-F/2| B3/2 B/2 c3/2 c/2| d3/2- c/2 B B/2c/2|\
 d d c3/2 A/2| B3/2 G/2 F G/2A/2| B3/2 G/2 F D| C2 B,2|

